editor/icons/icon_c_p_u_particles_2_d.svg

<svg height="16" viewBox="0 0 16 16" width="16" xmlns="http://www.w3.org/2000/svg"><path d="m4.5587261.60940813c-.4226244 0-.7617187.3410473-.7617187.76367177v.5078126c0 .1028478.020058.199689.056641.2890624h-1.1933597c-.4226245 0-.7617188.3390944-.7617188.7617188v.921875c-.040428-.00657-.0767989-.0234375-.1191406-.0234375h-.5078125c-.42262448 0-.76367188.3410475-.76367188.7636719v.3730468c0 .4226245.3410474.7617188.76367188.7617188h.5078125c.042396 0 .078663-.016851.1191406-.023437v4.4531248c-.040428-.0066-.076799-.02344-.1191406-.02344h-.5078125c-.42262448 0-.76367188.341047-.76367188.763672v.373047c0 .422625.3410474.761718.76367188.761718h.5078125c.042396 0 .078663-.01685.1191406-.02344v1.125c0 .422624.3390944.763672.7617188.763672h1.1367187v.457031c0 .422624.3390943.763672.7617187.763672h.3730469c.4226244 0 .7636719-.341048.7636719-.763672v-.457031h4.4062501v.457031c0 .422624.339094.763672.761719.763672h.373047c.422624 0 .763671-.341048.763671-.763672v-.457031h1.269532c.422625 0 .763672-.341048.763672-.763672v-1.111328c.01774.0012.03272.0098.05078.0098h.507812c.422624 0 .763672-.339093.763672-.761718v-.373047c0-.422624-.341048-.763672-.763672-.763672h-.507812c-.01803 0-.03307.0085-.05078.0098v-4.4258454c.01774.00122.03272.00977.05078.00977h.507812c.422624 0 .763672-.3390943.763672-.7617188v-.3730512c0-.4226244-.341048-.7636719-.763672-.7636719h-.507812c-.01803 0-.03307.00855-.05078.00977v-.9082075c0-.4226244-.341047-.7617187-.763672-.7617188h-1.328125c.03658-.089375.05859-.1862118.05859-.2890624v-.5078126c0-.42262437-.341047-.76367177-.763671-.76367177h-.373047c-.422625 0-.761719.3410474-.761719.76367177v.5078126c0 .1028478.02006.1996891.05664.2890624h-4.5214809c.036585-.0893749.0585938-.1862118.0585938-.2890624v-.5078126c0-.42262437-.3410475-.76367177-.7636719-.76367177zm3.2382813 2.35742177a3.279661 3.6440678 0 0 1 3.2128906 2.9394532 2.1864407 2.1864407 0 0 1 1.888672 2.1621094 2.1864407 2.1864407 0 0 1 -2.1875 2.1855475h-5.8300782a2.1864407 2.1864407 0 0 1 -2.1855469-2.1855475 2.1864407 2.1864407 0 0 1 1.8847656-2.1640626 3.279661 3.6440678 0 0 1 3.2167969-2.9375zm-2.9160156 8.0156251a.72881355.72881355 0 0 1 .7285156.728516.72881355.72881355 0 0 1 -.7285156.730469.72881355.72881355 0 0 1 -.7285157-.730469.72881355.72881355 0 0 1 .7285157-.728516zm5.8300782 0a.72881355.72881355 0 0 1 .730469.728516.72881355.72881355 0 0 1 -.730469.730469.72881355.72881355 0 0 1 -.7285157-.730469.72881355.72881355 0 0 1 .7285157-.728516zm-2.9140626.728516a.72881355.72881355 0 0 1 .7285156.730469.72881355.72881355 0 0 1 -.7285156.728515.72881355.72881355 0 0 1 -.7285156-.728515.72881355.72881355 0 0 1 .7285156-.730469z" fill="#a3b6f3" fill-opacity=".992157"/></svg>

<?xml version="1.0" encoding="UTF-8" standalone="no"?>
<svg
   xmlns:dc="http://purl.org/dc/elements/1.1/"
   xmlns:cc="http://creativecommons.org/ns#"
   xmlns:rdf="http://www.w3.org/1999/02/22-rdf-syntax-ns#"
   xmlns:svg="http://www.w3.org/2000/svg"
   xmlns="http://www.w3.org/2000/svg"
   xmlns:sodipodi="http://sodipodi.sourceforge.net/DTD/sodipodi-0.dtd"
   xmlns:inkscape="http://www.inkscape.org/namespaces/inkscape"
   width="16"
   height="16"
   version="1.1"
   viewBox="0 0 16 16"
   id="svg6"
   sodipodi:docname="icon_c_p_u_particles_2_d.svg"
   inkscape:version="0.92.3 (2405546, 2018-03-11)">
  <metadata
     id="metadata12">
    <rdf:RDF>
      <cc:Work
         rdf:about="">
        <dc:format>image/svg+xml</dc:format>
        <dc:type
           rdf:resource="http://purl.org/dc/dcmitype/StillImage" />
        <dc:title></dc:title>
      </cc:Work>
    </rdf:RDF>
  </metadata>
  <defs
     id="defs10" />
  <sodipodi:namedview
     pagecolor="#ffffff"
     bordercolor="#666666"
     borderopacity="1"
     objecttolerance="10"
     gridtolerance="10"
     guidetolerance="10"
     inkscape:pageopacity="0"
     inkscape:pageshadow="2"
     inkscape:window-width="1741"
     inkscape:window-height="753"
     id="namedview8"
     showgrid="false"
     inkscape:zoom="14.75"
     inkscape:cx="-5.6949153"
     inkscape:cy="7.7288136"
     inkscape:window-x="67"
     inkscape:window-y="27"
     inkscape:window-maximized="0"
     inkscape:current-layer="svg6" />
  <path
     style="fill:#a3b6f3;fill-opacity:0.99215686"
     d="m 4.5587261,0.60940813 c -0.4226244,0 -0.7617187,0.3410473 -0.7617187,0.76367177 v 0.5078126 c 0,0.1028478 0.020058,0.199689 0.056641,0.2890624 H 2.6602887 c -0.4226245,0 -0.7617188,0.3390944 -0.7617188,0.7617188 v 0.921875 C 1.8581419,3.8469787 1.821771,3.8301112 1.7794293,3.8301112 H 1.2716168 c -0.42262448,0 -0.76367188,0.3410475 -0.76367188,0.7636719 v 0.3730468 c 0,0.4226245 0.3410474,0.7617188 0.76367188,0.7617188 h 0.5078125 c 0.042396,0 0.078663,-0.016851 0.1191406,-0.023437 v 4.4531248 c -0.040428,-0.0066 -0.076799,-0.02344 -0.1191406,-0.02344 H 1.2716168 c -0.42262448,0 -0.76367188,0.341047 -0.76367188,0.763672 v 0.373047 c 0,0.422625 0.3410474,0.761718 0.76367188,0.761718 h 0.5078125 c 0.042396,0 0.078663,-0.01685 0.1191406,-0.02344 v 1.125 c 0,0.422624 0.3390944,0.763672 0.7617188,0.763672 h 1.1367187 v 0.457031 c 0,0.422624 0.3390943,0.763672 0.7617187,0.763672 H 4.931773 c 0.4226244,0 0.7636719,-0.341048 0.7636719,-0.763672 v -0.457031 h 4.4062501 v 0.457031 c 0,0.422624 0.339094,0.763672 0.761719,0.763672 h 0.373047 c 0.422624,0 0.763671,-0.341048 0.763671,-0.763672 v -0.457031 h 1.269532 c 0.422625,0 0.763672,-0.341048 0.763672,-0.763672 v -1.111328 c 0.01774,0.0012 0.03272,0.0098 0.05078,0.0098 h 0.507812 c 0.422624,0 0.763672,-0.339093 0.763672,-0.761718 v -0.373047 c 0,-0.422624 -0.341048,-0.763672 -0.763672,-0.763672 h -0.507812 c -0.01803,0 -0.03307,0.0085 -0.05078,0.0098 V 5.7187831 c 0.01774,0.00122 0.03272,0.00977 0.05078,0.00977 h 0.507812 c 0.422624,0 0.763672,-0.3390943 0.763672,-0.7617188 V 4.5937831 c 0,-0.4226244 -0.341048,-0.7636719 -0.763672,-0.7636719 h -0.507812 c -0.01803,0 -0.03307,0.00855 -0.05078,0.00977 V 2.9316737 c 0,-0.4226244 -0.341047,-0.7617187 -0.763672,-0.7617188 h -1.328125 c 0.03658,-0.089375 0.05859,-0.1862118 0.05859,-0.2890624 V 1.3730799 c 0,-0.42262437 -0.341047,-0.76367177 -0.763671,-0.76367177 h -0.373047 c -0.422625,0 -0.761719,0.3410474 -0.761719,0.76367177 v 0.5078126 c 0,0.1028478 0.02006,0.1996891 0.05664,0.2890624 H 5.6368511 C 5.6734361,2.08058 5.6954449,1.9837431 5.6954449,1.8808925 V 1.3730799 c 0,-0.42262437 -0.3410475,-0.76367177 -0.7636719,-0.76367177 z M 7.7970074,2.9668299 A 3.279661,3.6440678 0 0 1 11.009898,5.9062831 2.1864407,2.1864407 0 0 1 12.89857,8.0683925 2.1864407,2.1864407 0 0 1 10.71107,10.25394 H 4.8809918 A 2.1864407,2.1864407 0 0 1 2.6954449,8.0683925 2.1864407,2.1864407 0 0 1 4.5802105,5.9043299 3.279661,3.6440678 0 0 1 7.7970074,2.9668299 Z M 4.8809918,10.982455 A 0.72881355,0.72881355 0 0 1 5.6095074,11.710971 0.72881355,0.72881355 0 0 1 4.8809918,12.44144 0.72881355,0.72881355 0 0 1 4.1524761,11.710971 0.72881355,0.72881355 0 0 1 4.8809918,10.982455 Z m 5.8300782,0 A 0.72881355,0.72881355 0 0 1 11.441539,11.710971 0.72881355,0.72881355 0 0 1 10.71107,12.44144 0.72881355,0.72881355 0 0 1 9.9825543,11.710971 0.72881355,0.72881355 0 0 1 10.71107,10.982455 Z M 7.7970074,11.710971 A 0.72881355,0.72881355 0 0 1 8.525523,12.44144 0.72881355,0.72881355 0 0 1 7.7970074,13.169955 0.72881355,0.72881355 0 0 1 7.0684918,12.44144 0.72881355,0.72881355 0 0 1 7.7970074,11.710971 Z"
     id="rect822"
     inkscape:connector-curvature="0" />
  <g
     inkscape:groupmode="layer"
     id="layer1"
     inkscape:label="Layer 1" />
</svg>
